img/svg/comment.svg

<svg xmlns="http://www.w3.org/2000/svg" preserveAspectRatio="xMidYMid" width="17" height="17" viewBox="0 0 17 17"><defs><style>.cls-2 { fill: #6d9edc; }</style></defs><path d="M8.5 14.875c-.544 0-1.074-.049-1.589-.135l-3.724 2.26v-3.762c-1.941-1.363-3.187-3.453-3.187-5.801 0-4.107 3.806-7.437 8.5-7.437s8.5 3.33 8.5 7.437c0 4.108-3.806 7.438-8.5 7.438zm0-13.813c-4.108 0-7.437 2.855-7.437 6.375 0 2.161 1.256 4.066 3.174 5.219l-.034 2.464 2.501-1.503c.576.123 1.176.195 1.796.195 4.108 0 7.437-2.854 7.437-6.375 0-3.52-3.329-6.375-7.437-6.375zm3.719 5.844h-7.438c-.293 0-.531-.238-.531-.531 0-.294.238-.532.531-.532h7.438c.293 0 .531.238.531.532 0 .293-.238.531-.531.531zm-6.375 2.125h5.312c.294 0 .531.238.531.531 0 .294-.237.532-.531.532h-5.312c-.294 0-.532-.238-.532-.532 0-.293.238-.531.532-.531z" id="path-1" class="cls-2" fill-rule="evenodd"/></svg>

<svg xmlns="http://www.w3.org/2000/svg" xmlns:xlink="http://www.w3.org/1999/xlink" preserveAspectRatio="xMidYMid" width="17" height="17" viewBox="0 0 17 17">
  <defs>
    <style>

      .cls-2 {
        fill: #6d9edc;
      }
    </style>
  </defs>
  <path d="M8.500,14.875 C7.956,14.875 7.426,14.826 6.911,14.740 C6.911,14.740 3.187,17.000 3.187,17.000 C3.187,17.000 3.187,13.238 3.187,13.238 C1.246,11.875 -0.000,9.785 -0.000,7.437 C-0.000,3.330 3.806,-0.000 8.500,-0.000 C13.194,-0.000 17.000,3.330 17.000,7.437 C17.000,11.545 13.194,14.875 8.500,14.875 ZM8.500,1.062 C4.392,1.062 1.063,3.917 1.063,7.437 C1.063,9.598 2.319,11.503 4.237,12.656 C4.237,12.656 4.203,15.120 4.203,15.120 C4.203,15.120 6.704,13.617 6.704,13.617 C7.280,13.740 7.880,13.812 8.500,13.812 C12.608,13.812 15.937,10.958 15.937,7.437 C15.937,3.917 12.608,1.062 8.500,1.062 ZM12.219,6.906 C12.219,6.906 4.781,6.906 4.781,6.906 C4.488,6.906 4.250,6.668 4.250,6.375 C4.250,6.081 4.488,5.843 4.781,5.843 C4.781,5.843 12.219,5.843 12.219,5.843 C12.512,5.843 12.750,6.081 12.750,6.375 C12.750,6.668 12.512,6.906 12.219,6.906 ZM5.844,9.031 C5.844,9.031 11.156,9.031 11.156,9.031 C11.450,9.031 11.687,9.269 11.687,9.562 C11.687,9.856 11.450,10.094 11.156,10.094 C11.156,10.094 5.844,10.094 5.844,10.094 C5.550,10.094 5.312,9.856 5.312,9.562 C5.312,9.269 5.550,9.031 5.844,9.031 Z" id="path-1" class="cls-2" fill-rule="evenodd"/>
</svg>
